X:0555
T:Cleghorn's Rant.
M:C
L:1/8
Q:1/2=88
P:ABA
N:Aird prints a da capo
I: || || DC
Z:Jack Campin * www.campin.me.uk * 2009
K:D
P:A
AAdd (f/e/d/c/)  d.A |  g2fb Be/d/ {d}c{B}A|\
AAdd (f/e/d/c/   d).A|  g2Be dc       d2  ||
P:B
AAFd (e/f/g/).e/ fd  |  BGEf gffe          |\
AAEd  e/f/g/e/   fd  |T^g2ad'c'b     Ha2  |]

